X:1
T:PRELUDE
T:Prelude
T:Manuel Maria Ponce (1882-1948)
T:Revised by Harald Hübner
T:in E major - for Guitar
C:edited by Harald Huebner
%%score ( 1 2 )
L:1/8
Q:1/4=130
M:6/8
K:E
V:1 treble-8 nm="Classical Guitar" snm="Guit."
V:2 treble-8 
V:1
 z"^IV" .!4!b.b .!2!e.!4!f.!1!B | !>!!2!e(!3!c/!1!B/).!4!A .!3!G.!1!F.!4!A | %2
"^VI" !1!G!2!E/!1!G/!0!B !4!F/!2!A/!0!B(!2!E | %3
 !1!D)(!2!E/!4!F/)(!1!G/!2!A/) !0!B"^B IV"(!4!E!3!D) | !1!C!3!G!4!c !1!d!4!B,!0!e | %5
 z"^IV" !3!c/!0!e/!4!f"^B IV" !3!c/!2!e/!1!g!3!c/!0!e/ | %6
"^B II" !1!!4![Aca]"^IV"(!2!e/!1!d/)(!3!c/!1!B/) !4!A(!2!e!1!d) | %7
 (!3!c!1!B)(!4!A !3!G)"^II"!3!F!1!A |"^IV" !3!G!4!bb (!2!e!4!f)!1!B | %9
"^II" !>!!4!e(!3!d/!1!c/)!0!B"^I" !3!^A!1!G!4!F | %10
"^IV" !0!B(!0!B/!4!c/)(!1!d/!2!e/) !4!f(!1!B!3!c) |"^B IV" (!1![Bd]!2!e)!4!f (!1!B!3!c)d | %12
"^II" !0!e(!2!^A/!4!B/)(!1!c/!4!d/) !0!e!2!A!0!B | (!2!!1![^Ac]!4!d)!0!e !2!c!1!D!4!A | %14
"^1⁄2B IV" !0!B3 !3!D(!1!C!4!E) | !3!G!1!BB d!4!c!0!e | %16
"^I" !4!d(!1!G/!3!^A/)(!0!B/!2!c/) !4!d(!1!G!3!A) | (!0!B!2!c)(!3!=d !2!c)!4!C!3!!1![^EG] | %18
"^B II" A3 !3!C(!1!B,!4!=D) | !3!FAA c!4!B!2!=d | !1!c!3!F/A/c !3!F/!1!G/!0!B"^II"!3!F/!1!A/ | %21
 !1!c3 !3!F/!1!A/!4!d"^IV"!3!G/!4!c/ | !2!e3 !3!G/!4!c/ !2!e2 |"^II" !0!e3 !2!F/!3!B/ !4!d2 | %24
 !4!d3"^II" !1!E/!1!A/ !2!c2 | !2!c3 !1!D/!1!G/ !1!^B2 |"^VII" z !4!c'c' (!1!f!4!g)!2!d | %27
 !0!e"^II"(!3!g/!1!f/)(!4!e/!3!d/) !1!c"^VI"!4!g!2!f | (!4!e!1!c)!0!B !3!^A!1!F,!0!e | %29
"^II" B,!4!F(F !0!=D)!2!E!4!C | !0!=D(!2!B,/!4!C/)(!0!D/!2!E/) !4!F(!0!B"^\n"!1!c) | %31
 !-(!!2!=d!-)!!2!e!4!f !1!g!-(!!2!a!-)!!2!b |"^1⁄2B V" !1!!4![=ce=c']3 [cec']2 [cec'] | %33
 !2![=cf=c']3 [cfc']2 [cfc'] |"^B III" !1!!4![_B=d_b]3 [Bdb]2 [Bdb] | %35
"^III" !3!!4![e_b]3 [eb]2 !4![ea] | !3!!4![ea]3 !1![=da]2 !3![ea] | %37
"^II" !2!!4![=da]3 [da]2 !2!!3![d=g] | !2!!3![=d=g]3 !2!!3![cg]2 !2!!3![dg] | %39
 !2!!3![c=g]3 !2!!3![cf]2 !2!!0![ce] | !0![Be]3"^B II" !3!!4![Bd]2 !1!!4![Ad] | %41
 !0![=GBe]3 (!2!E/!4!F/)(!0!G/!2!A/)!4!B | !-(!!1!E!-)!!1!F(!2!=G !4!A)!-(!!1!B!-)!!1!=c | %43
"^VII" !0!!3!!4![=D=d=g]3"^IV" (!1!=G/!4!A/)(!1!B/!2!=c/)!4!d | %44
 (!2!=G!4!A)(!1!B !3!=c)"^B III"(!1!=d!4!=f) | z !3!=c/!4!e/!1!=g !3!c/!1!=d/!4!=f!3!c/!4!e/ | %46
 !1!=g3 !0![=Ge]2 [Ge] | z (!2!A/!4!B/)(!1!=c/!3!=d/) !0!e"^IV"!4!A!1!B | %48
 (!2!=c!4!=d)!1!e !-(!!2!f"^VII"(!-)!!2!=g!4!a) | %49
 z"^VII" !3!e/!2!=g/!1!b !3!e/!1!f/!4!a!3!e/!2!g/ | !1!b3 !0!!4![B=g]2 [Bg] | %51
 !2!!4![A=g]3 !2!!1![A=f]2 !2!!0![Ae] | [Ae]3 [Ae]2 !0![=Ge] | !4!!0![=ce]3 !0![=Ge]2 [Ge] | %54
 !3!!0![Fe]!-(!!4!d/!-)!!4!e/(!1!f/!3!g/) !4!a3 | (!1!g!4!b).b .!2!e.!4!f.!1!B | %56
 !>!!2!e(!3!c/!1!B/).!4!A .!3!G.!1!F.!4!A |"^VI" !1!G!2!E/!1!G/!0!B !4!F/!2!A/!0!B(!2!E | %58
 !1!D)(!2!E/!4!F/)(!1!G/!2!A/) !0!B(!4!E!3!D) |"^IV" z (!1!B!3!c) !4!A!3!c!2!G | %60
"^VI" z !4!c'c' (!2!f!4!g)c | !>!!2!f(!2!=d/!1!c/)!0!B !2!A(!1!G!4!B) | %62
"^II" A!3!F/!1!A/!1!c !3!F/!1!G/!0!B"^II"!3!F/!1!A/ | %63
 !1!c!-(!!1!F/"^VI"!-)!!1!G/(!2!A/!4!B/) !1!c!4!F!1!G | (!2!A!4!B)(!1!c !4!e)!3!d!0!B | %65
 z !0![Be] [Be]2 !4!!0![de]2 |"^V" z !2!!1![ce] [ce]2 !3![cf]2 | %67
"^VII" z !2!!3![dg] [dg]2 !4!!3![fg]2 |"^IX" z !1![eg] [eg]2 !2![ea]2 | %69
"^XI" z !2!!3![fb] [fb]2 !4![ab]2 |"^B VII" (3!1!E!3!g!1!b(3!1!Agb(3!2!d!1!f!4!c' | %71
"^B VI" (3!1!D!2!f!1!^a(3!1!Gf!1!a"^V"(3!2!c!1!e!4!b | %72
"^B IV" (3!1!C!2!e!1!g(3!1!F!2!e!1!g(3!1!B!1!d!2!a | %73
 (3!4!E!1!d!2!a(3!0!A,!3!c!2!e"^IV"(3B,!1!F!2!e | z"^IV" .!4!b.b .!2!e.!4!f.!1!B | %75
 !>!!2!e(!3!c/!1!B/).!4!A .!3!G.!1!F.!4!A |"^VI" !1!G(!2!E/!1!G/)!0!B !4!F/!2!A/!0!B!2!E | %77
 B(!2!E/!4!F/)(!1!G/!2!A/) !0!B(!2!E!4!F) | (!1!G!2!A)!4!B (!1!c!2!=d)!4!B | %79
 !1!c(!2!A/!4!B/)(!1!c/!2!=d/) !4!e(!2!A!4!B) | (!1!c!2!=d)!4!e (!2!f!4!g)!1!e | %81
"^IV" !4!f(!1!B/!3!c/)(!1!d/!2!e/) !4!f(!1!B!3!c) | (!1!d!2!e)!4!f (!1!g!2!a)!4!f | %83
 (!1!g!0!e)!1!B !0!e!4!=de | !3!c!0!e!4!A e!3!ce | !1!B!0!e !1!F/!0!B/!0!e/B/ !3!G/B/e/B/ | %86
 !4!A/B/e/B/ !1!F/B/e/B/ !4!A/B/e/B/ |"^V" (!1!e!0!B)B"^VII" (!3!E!4!F)!2!B, | %88
 !3!E!2!B,B, !-(!!3!E!-)!!3!B,!2!F, | z"^II" (!1!A!3!B) (!1!c!3!d)!-(!!4!e |"^VI" !3!!-)!!4![Af]6 | %91
 !arpeggio!!3!!1![EGBe]6 |] %92
V:2
 (E,6 | E,6) | (E,6 | E,6) | C4 B,2 | !0!A,4 !1!G,2 | !1!F, z z4 | z4 !1!B,2 | (E,6 | E,6) | %10
 !3!D3 z z2 | !1!G,6 | !3!C6 | !3!^^F,6 | z !1!G, G,4 | z6 | z6 | z4 C2 | z F, F,4 | z6 | z6 | %21
 z !1!F, F,4 | z !1!C C3 (!3!F | F)!1!B, B,3 (!1!E | E)!0!A, A,3 (!1!D | D)!4!G, G,2 z !4!G, | %26
 !3!C6 | z6 | z4 F,2 | B,6 | z6 | E,6 | z !0!A, A,2 A,2 | z !0!=D D2 D2 | z !1!=G, G,2 G,2 | %35
 z !2!C C2 C2 | z !2!F F2 F2 | z !1!B, B,2 B,2 | z !1!E E2 E2 | z !1!^A, A,2 A,2 | %40
 z !1!B, B,2 B,2 | z E, E,4 | z6 | !2!B,B,B, z z2 | z4 !1!=G,2 | !1!=C6 | z !1!=C C2 !1!B,2 | %47
 (A,6 | A,3) z !1!B,2 | E,6 | z E, E,2 E,2 | z !3!=C C2 (C2 | =C)!1!B,B, z (B,2 | B,)A,A, z ^A,2 | %54
 !1!B, z z4 | (E,6 | E,6) | (E,6 | E,6) | C6 | !3!F6 | z6 | z6 | z6 | z4 !0!A,2 | !1!G,3 G,2 G, | %66
 !0!A,3 A,2 A, | !1!B,3 B,2 B, | !1!C3 C2 C | !1!D3 D2 D | E2 A2 d2 | D2 G2 c2 | C2 F2 B2 | %73
 E2 A,2 !4!B,2 | (E,6 | E,6) | (E,6 | E,6) | E,6 | E,6 | E,6 | E,6 | E,6 | E,6 | c2 A2 c2 | %85
 B2 F2 G2 | A2 F2 A2 | !2![E,G]6 | z6 | E,6 | !1!D2 !2!B,2 B,2 | !2![E,B,]6 |] %92

